X: 3390
T: Ber's Favourite
R: jig
M: 6/8
K: Adorian
|:ABA G2E|AGA Bcd|eaf g2e|dBG DGB|
ABA G2E|AGA Bcd|edB gfg|edB A2E:|
|:A^ce a2a|bag edB|GED AGE|B2G Bcd|
eaf g2f|e/f/g e dBG|edB gfg|edB A2E:|

